!!!OTL: WENN MICH DAS GLUECK BETRIFFT
!!!ARE: Europa, Mitteleuropa, Deutschland, Friesack, Viegnitz
!!!SCT: E0973
!!!YEM: Copyright 1995, estate of Helmut Schaffrath.
**kern
*ICvox
*Ivox
*M3/4
*k[f#]
*G:
=1
{4d
4g
4g
=2
4g
4f#
4a}
=3
{4d
4a
4a
=4
4a
4g
4b}
=5
{4g
4b
4b
=6
4b
4a
4cc}
=7
{4cc
4f#
4f#
=8
2g
4g}
=9
{4d
4g
4g
=10
4g
4f#
4a}
=11
{4d
4a
4a
=12
4a
4g
4b}
=13
{4g
4b
4b
=14
4b
4a
4cc}
=15
{4cc
4f#
4f#
=16
2g
4g}
=17
{4b
4dd
4dd
=18
4dd
4cc
4ee}
=19
{4a
4cc
4cc
=20
4cc
4b
4dd}
=21
{4g
4b
4b
=22
4b
4a
4cc}
=23
{4cc
4f#
4f#
=24
2a
4g}
=25
{4b
4dd
4dd
=26
4dd
4cc
4ee}
=27
{4a
4cc
4cc
=28
4cc
4b
4dd}
=29
{4g
4b
4b
=30
4b
4a
4cc}
=31
{4cc
4f#
4f#
=32
2a
4g}
==
!!!AGN: Tanz - Lied, Reigen
!!!ONB: ESAC (Essen Associative Code) Database: ERK2
!!!AMT: simple triple
!!!AIN: vox
!!!EED: Helmut Schaffrath
!!!EEV: 1.0
*-
